X:22
T:Victory THO4.022, The
M:C
L:1/8
Z:vmp. Peter Dunk 2010/11.from a transcription by Fynn Titford-Mock 2007
B:Thompson's Compleat Collection of 200 Favourite Country Dances Volume IV.
Q:1/4=140
K:G
d2 BG d2 BG|efge dBAG|d2 BG d2 BG|edcB B2A2:|
|:DGFG DGFG|DFAc BGFG|GBdg gedc|B2A2 G4:|

